X:101
T: Dao chun lai
N: C1594
O: China, Jiangsu, Taixing
S: III, 508]
R: Wuge, Huagu]
M: 2/4
L: 1/16
K: C
c2e2decc | cAG6 | c2e2decc | cAG6
d2edc4 | d2egd4 | dABdAG^F2 | G8
c2cedec2 | cAGzAcAc | AcAcAcAc | AcE2z2DE | G2AcE2D2 | C4
AcAc | AcAcAcAc | AcE2z2DE | G2AcE2D2 | C8

